src/components/common/icons/sapuska.svg

<svg height="57" viewBox="0 0 45 57" width="45" xmlns="http://www.w3.org/2000/svg"><g fill="#020302" fill-rule="evenodd" transform="translate(-1)"><path d="m42.2173448 22.3714056c-2.4067241-2.5616667-5.712931-3.973-9.3270689-3.973-2.324069.0032222-4.6141035.6009444-6.6172759 1.7271111-.8767931.493-1.8718966.7523889-2.8815862.7523889-1.0096897 0-2.0064138-.2593889-2.8848276-.7523889-2.0047931-1.1261667-4.2932069-1.7238889-6.6318621-1.7271111-3.597931 0-6.90575858 1.4113333-9.31248272 3.973-2.45372414 2.61-3.71462069 6.2237222-3.46341379 9.9147777.23337931 3.4365 1.31762069 6.2301667 2.36944827 8.9287778.62882759 1.6191667 1.28034483 3.2947222 1.76979311 5.1491111 1.98210344 7.5351667 5.39365513 10.6107778 11.76458623 10.6107778 2.2446551 0 4.4277241-.5429444 6.3887586-1.5772778 1.9594138 1.0343334 4.1408621 1.5772778 6.3855172 1.5772778 6.3741724 0 9.7808621-3.0756111 11.7662069-10.6107778.4894483-1.8543889 1.1393449-3.5299444 1.7714138-5.1491111 1.0469655-2.6986111 2.1328276-5.4922778 2.3678276-8.9287778.2512069-3.6910555-1.0096896-7.3047777-3.4650345-9.9147777m-.8362758 9.6247777c-.1912414 2.7888334-1.0712759 5.0524445-2.0906897 7.6737223-.6725862 1.7319444-1.3662414 3.5202777-1.9172759 5.6082777-1.3224827 5.0202223-2.7973103 7.4078889-7.5961724 7.4078889-1.8556896 0-3.6514138-.5397222-5.1878276-1.5627778l-1.1976896-.7975-1.1993104.7975c-1.5380344 1.0230556-3.3321379 1.5627778-5.1894482 1.5627778-3.8248276 0-5.9365862-1.1084444-7.59455175-7.4078889-.55103448-2.088-1.24793104-3.8763333-1.92051724-5.6082777-1.0194138-2.6212778-1.89944828-4.8848889-2.08906897-7.6737223-.1717931-2.5487777.64827586-4.9267777 2.31272414-6.699 1.58503448-1.6836111 3.77134482-2.6132222 6.17320692-2.6132222 1.6077241.0032222 3.1198276.3963333 4.5006551 1.1728889 1.5218276.8555 3.2543449 1.3066111 5.0063104 1.3066111 1.7487241 0 3.4796207-.4511111 5.0046896-1.3066111 1.3775863-.7765556 2.8929311-1.1696667 4.512-1.1728889 2.3872759 0 4.5752069.9296111 6.1618621 2.6132222 1.6628276 1.7722223 2.4861379 4.1502223 2.3111035 6.699"/><path d="m23.7549345 15.0820944c3.8232069 0 7.9981034-.0982777 10.9542414-3.0369444 3.1635862-3.14166667 3.0517586-7.67211111 3.0517586-11.68055556-.2641724 0-.5315862-.00161111-.799-.00161111-3.8232069 0-7.9964828.09827778-10.9526207 3.03694445-3.1635862 3.14488889-3.0517586 7.67372222-3.0517586 11.68216662z"/></g></svg>

<?xml version="1.0" encoding="UTF-8"?>
<svg width="45px" height="57px" viewBox="0 0 45 57" version="1.1" xmlns="http://www.w3.org/2000/svg" xmlns:xlink="http://www.w3.org/1999/xlink">
    <!-- Generator: Sketch 52.5 (67469) - http://www.bohemiancoding.com/sketch -->
    <title>Icons/.sapuska--</title>
    <desc>Created with Sketch.</desc>
    <g id="Vapaaehtoisalusta-Layouts" stroke="none" stroke-width="1" fill="none" fill-rule="evenodd">
        <g id="HKI-Ikonit" transform="translate(-363.000000, -518.000000)" fill="#020302">
            <g id="Icons/.sapuska--" transform="translate(362.000000, 518.000000)">
                <path d="M42.2173448,22.3714056 C39.8106207,19.8097389 36.5044138,18.3984056 32.8902759,18.3984056 C30.5662069,18.4016278 28.2761724,18.99935 26.273,20.1255167 C25.3962069,20.6185167 24.4011034,20.8779056 23.3914138,20.8779056 C22.3817241,20.8779056 21.385,20.6185167 20.5065862,20.1255167 C18.5017931,18.99935 16.2133793,18.4016278 13.8747241,18.3984056 C10.2767931,18.3984056 6.96896552,19.8097389 4.56224138,22.3714056 C2.10851724,24.9814056 0.84762069,28.5951278 1.09882759,32.2861833 C1.3322069,35.7226833 2.41644828,38.51635 3.46827586,41.2149611 C4.09710345,42.8341278 4.74862069,44.5096833 5.23806897,46.3640722 C7.22017241,53.8992389 10.6317241,56.97485 17.0026552,56.97485 C19.2473103,56.97485 21.4303793,56.4319056 23.3914138,55.3975722 C25.3508276,56.4319056 27.5322759,56.97485 29.776931,56.97485 C36.1511034,56.97485 39.5577931,53.8992389 41.5431379,46.3640722 C42.0325862,44.5096833 42.6824828,42.8341278 43.3145517,41.2149611 C44.3615172,38.51635 45.4473793,35.7226833 45.6823793,32.2861833 C45.9335862,28.5951278 44.6726897,24.9814056 42.2173448,22.3714056 M41.381069,31.9961833 C41.1898276,34.7850167 40.3097931,37.0486278 39.2903793,39.6699056 C38.6177931,41.40185 37.9241379,43.1901833 37.3731034,45.2781833 C36.0506207,50.2984056 34.5757931,52.6860722 29.776931,52.6860722 C27.9212414,52.6860722 26.1255172,52.14635 24.5891034,51.1232944 L23.3914138,50.3257944 L22.1921034,51.1232944 C20.654069,52.14635 18.8599655,52.6860722 17.0026552,52.6860722 C13.1778276,52.6860722 11.066069,51.5776278 9.40810345,45.2781833 C8.85706897,43.1901833 8.16017241,41.40185 7.48758621,39.6699056 C6.46817241,37.0486278 5.58813793,34.7850167 5.39851724,31.9961833 C5.22672414,29.4474056 6.0467931,27.0694056 7.71124138,25.2971833 C9.29627586,23.6135722 11.4825862,22.6839611 13.8844483,22.6839611 C15.4921724,22.6871833 17.0042759,23.0802944 18.3851034,23.85685 C19.906931,24.71235 21.6394483,25.1634611 23.3914138,25.1634611 C25.1401379,25.1634611 26.8710345,24.71235 28.3961034,23.85685 C29.7736897,23.0802944 31.2890345,22.6871833 32.9081034,22.6839611 C35.2953793,22.6839611 37.4833103,23.6135722 39.0699655,25.2971833 C40.7327931,27.0694056 41.5561034,29.4474056 41.381069,31.9961833" id="Fill-75"></path>
                <path d="M23.7549345,15.0820944 C27.5781414,15.0820944 31.7530379,14.9838167 34.7091759,12.04515 C37.8727621,8.90348333 37.7609345,4.37303889 37.7609345,0.364594444 C37.4967621,0.364594444 37.2293483,0.362983333 36.9619345,0.362983333 C33.1387276,0.362983333 28.9654517,0.461261111 26.0093138,3.39992778 C22.8457276,6.54481667 22.9575552,11.07365 22.9575552,15.0820944 L23.7549345,15.0820944" id="Fill-76"></path>
            </g>
        </g>
    </g>
</svg>
